ligands/bidentate/dimethylglyoxime.svg

<svg height="256" viewBox="0 0 256 256" width="256" xmlns="http://www.w3.org/2000/svg"><path d="m0 0h256v256h-256z" fill="#fff"/><ellipse cx="114" cy="111.6" fill="#ff7f7f" fill-rule="evenodd" rx="19.8" ry="19.8" stroke="#ff7f7f"/><g fill="none" stroke="#000" stroke-width="2"><path d="m64 201.9 29-16.8"/><path d="m121.1 183.3 46.1 20.6"/><path d="m125.1 174.3 39.6 17.7"/><path d="m167.2 203.9 44.2-48.9"/><path d="m211.4 155-20.3-35.1"/><path d="m199.2 153.7-16.6-28.9"/><path d="m184.8 83.9 10.8-24.2"/><path d="m164.5 100.9-36.4 7.7"/><path d="m108.6 163 3.1-29.5"/><path d="m164.9 202.9 2.3 1 2.2-2.4" stroke-miterlimit="10"/><path d="m209.2 157.5 2.2-2.5-1-1.7" stroke-miterlimit="10"/></g><text font-family="sans-serif" font-size="39" x="12.8" y="229.7">H</text><text font-family="sans-serif" font-size="39" x="38.1" y="229.7">O</text><text font-family="sans-serif" font-size="39" x="95.2" y="196.8">N</text><text font-family="sans-serif" font-size="39" x="166.6" y="117.7">N</text><text font-family="sans-serif" font-size="39" x="193.5" y="57.5">O</text><text font-family="sans-serif" font-size="39" x="220.8" y="57.5">H</text><text x="102.2" y="131.3"/></svg>

<?xml version='1.0' encoding='iso-8859-1'?>
<svg version='1.1' baseProfile='full'
              xmlns='http://www.w3.org/2000/svg'
                      xmlns:rdkit='http://www.rdkit.org/xml'
                      xmlns:xlink='http://www.w3.org/1999/xlink'
                  xml:space='preserve'
width='256px' height='256px' viewBox='0 0 256 256'>
<!-- END OF HEADER -->
<rect style='opacity:1.0;fill:#FFFFFF;stroke:none' width='256.0' height='256.0' x='0.0' y='0.0'> </rect>
<ellipse cx='114.0' cy='111.6' rx='19.8' ry='19.8' class='atom-6'  style='fill:#FF7F7F;fill-rule:evenodd;stroke:#FF7F7F;stroke-width:1.0px;stroke-linecap:butt;stroke-linejoin:miter;stroke-opacity:1' />
<path class='bond-0 atom-0 atom-1' d='M 64.0,201.9 L 93.0,185.1' style='fill:none;fill-rule:evenodd;stroke:#000000;stroke-width:2.0px;stroke-linecap:butt;stroke-linejoin:miter;stroke-opacity:1' />
<path class='bond-1 atom-1 atom-2' d='M 121.1,183.3 L 167.2,203.9' style='fill:none;fill-rule:evenodd;stroke:#000000;stroke-width:2.0px;stroke-linecap:butt;stroke-linejoin:miter;stroke-opacity:1' />
<path class='bond-1 atom-1 atom-2' d='M 125.1,174.3 L 164.7,192.0' style='fill:none;fill-rule:evenodd;stroke:#000000;stroke-width:2.0px;stroke-linecap:butt;stroke-linejoin:miter;stroke-opacity:1' />
<path class='bond-2 atom-2 atom-3' d='M 167.2,203.9 L 211.4,155.0' style='fill:none;fill-rule:evenodd;stroke:#000000;stroke-width:2.0px;stroke-linecap:butt;stroke-linejoin:miter;stroke-opacity:1' />
<path class='bond-3 atom-3 atom-4' d='M 211.4,155.0 L 191.1,119.9' style='fill:none;fill-rule:evenodd;stroke:#000000;stroke-width:2.0px;stroke-linecap:butt;stroke-linejoin:miter;stroke-opacity:1' />
<path class='bond-3 atom-3 atom-4' d='M 199.2,153.7 L 182.6,124.8' style='fill:none;fill-rule:evenodd;stroke:#000000;stroke-width:2.0px;stroke-linecap:butt;stroke-linejoin:miter;stroke-opacity:1' />
<path class='bond-4 atom-4 atom-5' d='M 184.8,83.9 L 195.6,59.7' style='fill:none;fill-rule:evenodd;stroke:#000000;stroke-width:2.0px;stroke-linecap:butt;stroke-linejoin:miter;stroke-opacity:1' />
<path class='bond-5 atom-4 atom-6' d='M 164.5,100.9 L 128.1,108.6' style='fill:none;fill-rule:evenodd;stroke:#000000;stroke-width:2.0px;stroke-linecap:butt;stroke-linejoin:miter;stroke-opacity:1' />
<path class='bond-6 atom-1 atom-6' d='M 108.6,163.0 L 111.7,133.5' style='fill:none;fill-rule:evenodd;stroke:#000000;stroke-width:2.0px;stroke-linecap:butt;stroke-linejoin:miter;stroke-opacity:1' />
<path d='M 164.9,202.9 L 167.2,203.9 L 169.4,201.5' style='fill:none;stroke:#000000;stroke-width:2.0px;stroke-linecap:butt;stroke-linejoin:miter;stroke-miterlimit:10;stroke-opacity:1;' />
<path d='M 209.2,157.5 L 211.4,155.0 L 210.4,153.3' style='fill:none;stroke:#000000;stroke-width:2.0px;stroke-linecap:butt;stroke-linejoin:miter;stroke-miterlimit:10;stroke-opacity:1;' />
<text x='12.8' y='229.7' class='atom-0' style='font-size:39px;font-style:normal;font-weight:normal;fill-opacity:1;stroke:none;font-family:sans-serif;text-anchor:start;fill:#000000' >H</text>
<text x='38.1' y='229.7' class='atom-0' style='font-size:39px;font-style:normal;font-weight:normal;fill-opacity:1;stroke:none;font-family:sans-serif;text-anchor:start;fill:#000000' >O</text>
<text x='95.2' y='196.8' class='atom-1' style='font-size:39px;font-style:normal;font-weight:normal;fill-opacity:1;stroke:none;font-family:sans-serif;text-anchor:start;fill:#000000' >N</text>
<text x='166.6' y='117.7' class='atom-4' style='font-size:39px;font-style:normal;font-weight:normal;fill-opacity:1;stroke:none;font-family:sans-serif;text-anchor:start;fill:#000000' >N</text>
<text x='193.5' y='57.5' class='atom-5' style='font-size:39px;font-style:normal;font-weight:normal;fill-opacity:1;stroke:none;font-family:sans-serif;text-anchor:start;fill:#000000' >O</text>
<text x='220.8' y='57.5' class='atom-5' style='font-size:39px;font-style:normal;font-weight:normal;fill-opacity:1;stroke:none;font-family:sans-serif;text-anchor:start;fill:#000000' >H</text>
<text x='102.2' y='131.3' class='atom-6' style='font-size:39px;font-style:normal;font-weight:normal;fill-opacity:1;stroke:none;font-family:sans-serif;text-anchor:start;fill:#000000' ></text>
</svg>
